src/assets/icons/settings/remove.svg

<?xml version="1.0" encoding="UTF-8"?>
<svg width="24px" height="24px" viewBox="0 0 24 24" version="1.1" xmlns="http://www.w3.org/2000/svg" xmlns:xlink="http://www.w3.org/1999/xlink">
    <title>形状结合</title>
    <g id="扩展程序" stroke="none" stroke-width="1" fill="none" fill-rule="evenodd">
        <g id="设置" transform="translate(-40.000000, -810.000000)" fill="#6E7585" fill-rule="nonzero">
            <g id="编组-6备份-8" transform="translate(20.000000, 514.000000)">
                <g id="编组-4备份-30" transform="translate(20.000000, 280.000000)">
                    <g id="形状结合-2" transform="translate(0.000000, 16.000000)">
                        <path d="M4,10 L4,19 C4,19.5522847 4.44771525,20 5,20 L5,20 L19,20 C19.5522847,20 20,19.5522847 20,19 L20,19 L20,10 L22,10 L22,19 C22,20.6568542 20.6568542,22 19,22 L5,22 C3.34314575,22 2,20.6568542 2,19 L2,10 L4,10 Z M9,12 C9.55228475,12 10,12.4477153 10,13 L10,17 C10,17.5522847 9.55228475,18 9,18 C8.44771525,18 8,17.5522847 8,17 L8,13 C8,12.4477153 8.44771525,12 9,12 Z M15,12 C15.5522847,12 16,12.4477153 16,13 L16,17 C16,17.5522847 15.5522847,18 15,18 C14.4477153,18 14,17.5522847 14,17 L14,13 C14,12.4477153 14.4477153,12 15,12 Z M2,8 C1.44771525,8 1,7.55228475 1,7 C1,6.44771525 1.44771525,6 2,6 L5,6 L5,5 C5,3.34314575 6.34314575,2 8,2 L16,2 C17.6568542,2 19,3.34314575 19,5 L19,6 L22,6 C22.5522847,6 23,6.44771525 23,7 C23,7.55228475 22.5522847,8 22,8 L2,8 Z M16,4 L8,4 C7.44771525,4 7,4.44771525 7,5 L7,5 L7,6 L17,6 L17,5 C17,4.48716416 16.6139598,4.06449284 16.1166211,4.00672773 L16,4 Z" id="形状结合"></path>
                    </g>
                </g>
            </g>
        </g>
    </g>
</svg>

<svg width="24" height="24" xmlns="http://www.w3.org/2000/svg"><path d="M4 10v9a1 1 0 0 0 1 1h14a1 1 0 0 0 1-1v-9h2v9a3 3 0 0 1-3 3H5a3 3 0 0 1-3-3v-9h2zm5 2a1 1 0 0 1 1 1v4a1 1 0 0 1-2 0v-4a1 1 0 0 1 1-1zm6 0a1 1 0 0 1 1 1v4a1 1 0 0 1-2 0v-4a1 1 0 0 1 1-1zM2 8a1 1 0 1 1 0-2h3V5a3 3 0 0 1 3-3h8a3 3 0 0 1 3 3v1h3a1 1 0 0 1 0 2H2zm14-4H8a1 1 0 0 0-1 1v1h10V5a1 1 0 0 0-.883-.993L16 4z" fill="#6e7585" fill-rule="nonzero"/></svg>
